resources/haticons/SVG/receipt_long.svg

<!-- Generated by IcoMoon.io -->
<svg version="1.1" xmlns="http://www.w3.org/2000/svg" width="24" height="24" viewBox="0 0 24 24">
<title>receipt_long</title>
<path d="M19.5 3.516l-1.5-1.5-1.5 1.5-1.5-1.5-1.5 1.5-1.5-1.5-1.5 1.5-1.5-1.5-1.5 1.5-1.5-1.5v13.969h-3v3q0 0.844 0.398 1.523t1.078 1.078 1.523 0.398h12q0.844 0 1.523-0.398t1.078-1.078 0.398-1.523v-16.969zM18.984 18.984q0 0.422-0.281 0.727t-0.703 0.305-0.703-0.305-0.281-0.727v-3h-9v-10.969h10.969v13.969zM9 6.984h6v2.016h-6v-2.016zM15.984 6.984h2.016v2.016h-2.016v-2.016zM9 9.984h6v2.016h-6v-2.016zM15.984 9.984h2.016v2.016h-2.016v-2.016z"></path>
</svg>

<svg xmlns="http://www.w3.org/2000/svg" width="24" height="24"><path d="M19.5 3.516l-1.5-1.5-1.5 1.5-1.5-1.5-1.5 1.5-1.5-1.5-1.5 1.5-1.5-1.5-1.5 1.5-1.5-1.5v13.969H3v3q0 .844.398 1.523t1.078 1.078 1.523.398h12q.844 0 1.523-.398t1.078-1.078.398-1.523V2.016zm-.516 15.468q0 .422-.281.727t-.703.305-.703-.305-.281-.727v-3h-9V5.015h10.969v13.969zM9 6.984h6V9H9V6.984zm6.984 0H18V9h-2.016V6.984zM9 9.984h6V12H9V9.984zm6.984 0H18V12h-2.016V9.984z"/></svg>
